X: 11441
T: I'LL MAK YOU BE FAIN TO FOLLOW ME.
O: Scottish air
Q: "Lively."
%R: jig
B: W. Hamilton "Universal Tune-Book" Vol. 1 Glasgow 1844 p.144 #1
S: http://imslp.org/wiki/Hamilton's_Universal_Tune-Book_(Various)
Z: 2016 John Chambers <jc:trillian.mit.edu>
M: 6/8
L: 1/8
K: D
%%stretchstaff 0
% - - - - - - - - - - - - - - - - - - - - - - - - -
D |\
F/G/AA d2f | eEE E2D | F/G/AA ded | c>Bc dAF |\
GeG FdF | eEE E2D | F/G/AA d2A | FDD D2 :|\
g |\
fab afd | g2f e2d | fab afd | afb afd |
g>ab afd | g2f e2E | F/G/AA d2A | FDD D2g |\
fab afd | g2f e2d | fab afd | afb afd |\
gab afd | gaf eag | fdf geg | fdd d2 |]
% - - - - - - - - - - - - - - - - - - - - - - - - -

%%sep 1 1 500
%%sep 1 1 500

